X:1
T:Exodus, 88.77.887
T:Exodus, 88.77.887
T:J. F. Rötscher, 1790
T:Public Domain Courtesy of the Cyber Hymnal™
C:J. F. Rötscher, 1790
Z:Public Domain
Z:Courtesy of the Cyber Hymnal™
%%score ( 1 2 ) ( 3 4 )
L:1/8
Q:1/4=113
M:4/4
K:F
V:1 treble 
V:2 treble 
V:3 bass 
V:4 bass 
V:1
 [FA]2 (AB) | [Gc]2 F2 [EG]2 [FA]2 | G4 F4- | F4 [Fc]2 [Ec]2 | [Ad]2 [Ge]2 [Ff]2 [Ge]2 | d4 [Ec]4 | %6
 [Ff]2 [Fc]2 [Fd]2 [Fc]2 | [GB]2 [FA]2 [EG]4 | [EG]2 [FA]2 [FB]2 [GB]2 | [GA]2 [FA]2 [EG]4 | %10
 [CE]2 [CE]2 F2 [DF]2 | [DG]2 [CG]2 [FA]2 [GA]2 | [FA]2 A2 [GB]2 [Fd]2 | [Bd]2 [A^c]2 [Ad]2 [Fd]2 | %14
 [Ff]2 [Fc]2 [Fd]2 [Ec]2 | (A2 F2 G3) z G | F4 |] %17
V:2
 x2 F2 | x2 F2 x4 | (F2 E2) F4- | F4 x4 | x8 | (A2 GF) x4 | x8 | x8 | x8 | x8 | x4 F2 x2 | x8 | %12
 x2 A2 x4 | x8 | x8 | F6 E2 x | F4 |] %17
V:3
 [F,C]2 (CD) | [E,C]2 [F,A,]2 [C,C]2 [A,,C]2 | (C3 B,) [F,A,]4- | [F,A,]4 [A,C]2 [G,B,]2 | %4
 [F,A,]2 [E,C]2 [D,D]2 [E,C]2 | ([F,C]2 [G,=B,]2) [C,C]4 | [A,C]2 [A,C]2 B,2 [A,C]2 | %7
 [G,D]2 ([A,C][B,D]) [CE]4 | [C,C]2 [F,C]2 [D,B,]2 [G,,D]2 | [A,,C]2 [B,,D]2 [C,G,]4 | %10
 [C,G,]2 [C,C]2 [D,C]2 [F,B,]2 | [F,G,]2 [E,C]2 [F,C]2 [E,^C]2 | [D,D]2 [F,D]2 [G,D]2 [B,D]2 | %13
 [G,E]2 [A,E]2 [D,F]2 [D,D]2 | [A,C]2 [A,,C]2 [B,,B,]2 [C,G,]2 | (F,2 A,2 B,3) z B, | [F,A,]4 |] %17
V:4
 x2 F,2 | x8 | C,4 x4 | x8 | x8 | x8 | x4 B,2 x2 | x8 | x8 | x8 | x8 | x8 | x8 | x8 | x8 | %15
 D,6 C,2 x | x4 |] %17

